X:1
T:Majas Hambo
C:Kurt Wahl
Z:2017
L:1/8
Q:1/4=120
M:3/4
I:linebreak $
K:G
"^A""G" B>A G2 B,2 |"C" C>B, CD E2 |"D" D>E F2 A2 |"G" B>A GE D2 |"G" B>A G2 B,2 | 
"A" C>B, CD"C" E2 |"D" D>F Ac A>F |"G" G2 G4 ::"^B""G" G>A B2 G>A |"D" Bc A3 G |"D" F>A d2 d2 | 
"G" d>c BA G2 |"G" G>B d2 d2 |"C" g>f ed c>B |"D" A>G FA d>F |"G" G2 G4 

